X: 0
T: Come, Follow
L: 1/4
M: 4/4
%%MIDI program 73
K:Gmaj
"^1"G2 F F | E E D D | C C B, G, | C D G,2 |
w:Come fol-low, fol-low, fol-low, fol-low, fol-low, fol-low me;
"^2"G,/2A,/2 B,/2C/2 D B, | C A, D B, | E/2F/2 G/2A/2 F G | G > F G2 |
w:Whi-ther shall I fol-low, fol-low, fol-low, Whi-ther shall I fol-low, fol-low thee?
"^3"B > B A B | G> A F G | E/2F/2 G/2A/2 B c | A > A B2 ||
w:To the green-wood, To the green-wood, To*  the* green-wood, green-wood tree.
